img/branding.svg

<svg height="23" viewBox="0 0 216 23" width="216" xmlns="http://www.w3.org/2000/svg"><path d="m620.404 46.556c.028.196.056.588.056.672 0 1.372-.672 1.652-2.632 1.792v.98h9.1v-.98c-1.54-.084-2.128-.336-2.296-1.68l-1.736-13.972c0-1.484.56-1.96 2.352-2.044v-.98h-6.244c-.056.644-.224 1.064-.448 1.68l-4.256 12.236-4.564-12.208c-.224-.616-.392-1.064-.448-1.708h-6.328v.98c1.848.084 2.38.56 2.38 2.044l-1.736 13.972c-.14 1.288-.728 1.596-2.324 1.68v.98h6.468v-.98c-2.044-.14-2.66-.42-2.66-1.792 0-.084.028-.476.056-.672l1.428-11.592 5.656 15.036h1.4l5.376-15.036zm13.584 1.484c.812 0 1.372-.308 2.156-.896v-5.236l-2.408.98c-1.176.448-1.904 1.092-1.904 2.66 0 1.456.672 2.492 2.156 2.492zm6.02-8.568v7.42c0 .952.196 1.568.924 1.568.42 0 .812-.14 1.12-.28l.168.616c-.812.952-1.876 1.484-3.192 1.484-1.512 0-2.52-.924-2.8-2.464-.896 1.176-2.352 2.408-4.368 2.408-2.268 0-3.78-1.372-3.78-3.612 0-2.408 1.736-3.388 3.836-4.172l4.228-1.54v-2.38c0-1.596-.532-2.744-1.988-2.744-1.344 0-1.876 1.008-1.876 2.352 0 .56.084 1.12.224 1.736l-2.324.308c-.756-.252-1.232-.84-1.232-1.764 0-2.324 2.408-3.528 5.516-3.528 3.584 0 5.544 1.316 5.544 4.592zm8.516.42c1.428-1.428 2.8-1.512 4.536-1.512h.532v-3.024c-.224-.28-.644-.476-1.232-.476-1.652 0-2.492 1.092-3.836 4.144l.112-4.144h-.644l-5.012 1.54v.532l1.68.98v9.912c0 .98-.448 1.148-1.764 1.232v.924h8.008v-.924c-1.736-.14-2.38-.308-2.38-1.456zm11.428-8.372h-.84c-1.204 1.848-2.856 3.416-4.788 4.284v.644h1.736v9.492c0 3.136 1.68 4.34 3.976 4.34 2.016 0 3.416-1.008 4.312-2.408l-.336-.504c-.7.532-1.316.784-2.1.784-1.316 0-1.96-.728-1.96-2.436v-9.268h3.64v-1.288h-3.64zm10.812 3.36h-.616l-4.928 1.54v.532l1.68.98v9.912c0 .98-.448 1.148-1.764 1.232v.924h7.392v-.924c-1.316-.084-1.764-.252-1.764-1.232zm-1.988-1.68c1.372 0 2.296-1.036 2.296-2.212 0-1.204-.924-2.212-2.296-2.212-1.344 0-2.268 1.008-2.268 2.212 0 1.176.924 2.212 2.268 2.212zm15.88 14.644c0 .98-.42 1.148-1.708 1.232v.924h7.336v-.924c-1.288-.084-1.736-.252-1.736-1.232v-8.4c0-3.052-1.372-4.564-4.004-4.564-2.38 0-3.976 1.344-5.18 2.744l.112-2.744h-.644l-5.012 1.54v.532l1.68.98v9.912c0 .98-.448 1.148-1.764 1.232v.924h7.336v-.924c-1.288-.084-1.708-.252-1.708-1.232v-9.464c.896-.616 1.96-1.148 3.136-1.148 1.54 0 2.156.812 2.156 2.436zm13.696-12.964c3.752 0 5.712 2.492 5.712 5.852v.644h-9.128c-.112 3.92 1.904 6.244 4.648 6.244 1.904 0 3.164-.812 4.172-2.268l.448.252c-.728 2.772-2.772 4.676-5.992 4.676-4.06 0-6.776-2.996-6.776-7.308 0-4.788 3.08-8.092 6.916-8.092zm-.28 1.036c-1.848 0-2.856 1.848-3.08 4.424h5.6c0-2.632-.7-4.424-2.52-4.424zm23.052-5.852c-5.544 0-9.884 4.088-9.884 10.584 0 5.796 3.78 9.632 9.884 9.632 2.632 0 4.816-.616 6.468-1.68l.42-5.264h-1.12c-.98 4.088-2.772 5.74-5.404 5.74-3.836 0-5.908-4.004-5.908-9.212 0-4.76 1.792-8.624 5.656-8.624 2.716 0 4.368 1.736 5.04 4.984h1.064l-.028-4.508c-1.596-1.036-3.696-1.652-6.188-1.652zm16.16 19.208c2.072 0 2.996-2.38 2.996-6.048 0-4.144-.952-7.308-3.192-7.308-2.072 0-3.024 2.352-3.024 6.02 0 4.144.98 7.336 3.22 7.336zm-.14 1.008c-4.284 0-7.196-2.912-7.196-7.364 0-4.76 3.108-8.036 7.28-8.036 4.284 0 7.196 2.968 7.196 7.392 0 4.76-3.108 8.008-7.28 8.008zm14.312-10.388c1.428-1.428 2.8-1.512 4.536-1.512h.532v-3.024c-.224-.28-.644-.476-1.232-.476-1.652 0-2.492 1.092-3.836 4.144l.112-4.144h-.644l-5.012 1.54v.532l1.68.98v9.912c0 .98-.448 1.148-1.764 1.232v.924h8.008v-.924c-1.736-.14-2.38-.308-2.38-1.456zm25.428 7.952c0 .98-.364 1.148-1.652 1.232v.924h7.28v-.924c-1.288-.084-1.736-.252-1.736-1.232v-8.456c0-2.968-1.26-4.508-3.836-4.508-2.324 0-3.948 1.344-5.124 2.828-.364-1.96-1.596-2.828-3.64-2.828-2.352 0-3.836 1.26-5.012 2.772l.112-2.772h-.644l-5.012 1.54v.532l1.68.98v9.912c0 .98-.448 1.148-1.764 1.232v.924h7.308v-.924c-1.288-.084-1.68-.252-1.68-1.232v-9.464c.896-.616 1.792-1.148 2.912-1.148 1.456 0 2.016.812 2.016 2.408v8.204c0 .98-.364 1.148-1.68 1.232v.924h7.224v-.924c-1.288-.084-1.652-.252-1.652-1.232v-9.436c.868-.644 1.764-1.176 2.884-1.176 1.456 0 2.016.812 2.016 2.408zm12.324-12.964h-.616l-4.928 1.54v.532l1.68.98v9.912c0 .98-.448 1.148-1.764 1.232v.924h7.392v-.924c-1.316-.084-1.764-.252-1.764-1.232zm-1.988-1.68c1.372 0 2.296-1.036 2.296-2.212 0-1.204-.924-2.212-2.296-2.212-1.344 0-2.268 1.008-2.268 2.212 0 1.176.924 2.212 2.268 2.212zm11.932 1.68c3.752 0 5.712 2.492 5.712 5.852v.644h-9.128c-.112 3.92 1.904 6.244 4.648 6.244 1.904 0 3.164-.812 4.172-2.268l.448.252c-.728 2.772-2.772 4.676-5.992 4.676-4.06 0-6.776-2.996-6.776-7.308 0-4.788 3.08-8.092 6.916-8.092zm-.28 1.036c-1.848 0-2.856 1.848-3.08 4.424h5.6c0-2.632-.7-4.424-2.52-4.424zm12.996 3.976c1.428-1.428 2.8-1.512 4.536-1.512h.532v-3.024c-.224-.28-.644-.476-1.232-.476-1.652 0-2.492 1.092-3.836 4.144l.112-4.144h-.644l-5.012 1.54v.532l1.68.98v9.912c0 .98-.448 1.148-1.764 1.232v.924h8.008v-.924c-1.736-.14-2.38-.308-2.38-1.456z" fill-rule="evenodd" transform="translate(-601 -28)"/></svg>

<?xml version="1.0" encoding="UTF-8"?>
<svg width="216px" height="23px" viewBox="0 0 216 23" version="1.1" xmlns="http://www.w3.org/2000/svg" xmlns:xlink="http://www.w3.org/1999/xlink">
    <!-- Generator: Sketch 47 (45396) - http://www.bohemiancoding.com/sketch -->
    <title>Martine Cormier</title>
    <desc>Created with Sketch.</desc>
    <defs></defs>
    <g id="Page-1" stroke="none" stroke-width="1" fill="none" fill-rule="evenodd">
        <g id="inspo-copy-2" transform="translate(-601.000000, -28.000000)" fill="#000000">
            <path d="M620.404,46.556 C620.432,46.752 620.46,47.144 620.46,47.228 C620.46,48.6 619.788,48.88 617.828,49.02 L617.828,50 L626.928,50 L626.928,49.02 C625.388,48.936 624.8,48.684 624.632,47.34 L622.896,33.368 C622.896,31.884 623.456,31.408 625.248,31.324 L625.248,30.344 L619.004,30.344 C618.948,30.988 618.78,31.408 618.556,32.024 L614.3,44.26 L609.736,32.052 C609.512,31.436 609.344,30.988 609.288,30.344 L602.96,30.344 L602.96,31.324 C604.808,31.408 605.34,31.884 605.34,33.368 L603.604,47.34 C603.464,48.628 602.876,48.936 601.28,49.02 L601.28,50 L607.748,50 L607.748,49.02 C605.704,48.88 605.088,48.6 605.088,47.228 C605.088,47.144 605.116,46.752 605.144,46.556 L606.572,34.964 L612.228,50 L613.628,50 L619.004,34.964 L620.404,46.556 Z M633.988,48.04 C634.8,48.04 635.36,47.732 636.144,47.144 L636.144,41.908 L633.736,42.888 C632.56,43.336 631.832,43.98 631.832,45.548 C631.832,47.004 632.504,48.04 633.988,48.04 Z M640.008,39.472 L640.008,46.892 C640.008,47.844 640.204,48.46 640.932,48.46 C641.352,48.46 641.744,48.32 642.052,48.18 L642.22,48.796 C641.408,49.748 640.344,50.28 639.028,50.28 C637.516,50.28 636.508,49.356 636.228,47.816 C635.332,48.992 633.876,50.224 631.86,50.224 C629.592,50.224 628.08,48.852 628.08,46.612 C628.08,44.204 629.816,43.224 631.916,42.44 L636.144,40.9 L636.144,38.52 C636.144,36.924 635.612,35.776 634.156,35.776 C632.812,35.776 632.28,36.784 632.28,38.128 C632.28,38.688 632.364,39.248 632.504,39.864 L630.18,40.172 C629.424,39.92 628.948,39.332 628.948,38.408 C628.948,36.084 631.356,34.88 634.464,34.88 C638.048,34.88 640.008,36.196 640.008,39.472 Z M648.524,39.892 C649.952,38.464 651.324,38.38 653.06,38.38 L653.592,38.38 L653.592,35.356 C653.368,35.076 652.948,34.88 652.36,34.88 C650.708,34.88 649.868,35.972 648.524,39.024 L648.636,34.88 L647.992,34.88 L642.98,36.42 L642.98,36.952 L644.66,37.932 L644.66,47.844 C644.66,48.824 644.212,48.992 642.896,49.076 L642.896,50 L650.904,50 L650.904,49.076 C649.168,48.936 648.524,48.768 648.524,47.62 L648.524,39.892 Z M659.952,31.52 L659.112,31.52 C657.908,33.368 656.256,34.936 654.324,35.804 L654.324,36.448 L656.06,36.448 L656.06,45.94 C656.06,49.076 657.74,50.28 660.036,50.28 C662.052,50.28 663.452,49.272 664.348,47.872 L664.012,47.368 C663.312,47.9 662.696,48.152 661.912,48.152 C660.596,48.152 659.952,47.424 659.952,45.716 L659.952,36.448 L663.592,36.448 L663.592,35.16 L659.952,35.16 L659.952,31.52 Z M670.764,34.88 L670.148,34.88 L665.22,36.42 L665.22,36.952 L666.9,37.932 L666.9,47.844 C666.9,48.824 666.452,48.992 665.136,49.076 L665.136,50 L672.528,50 L672.528,49.076 C671.212,48.992 670.764,48.824 670.764,47.844 L670.764,34.88 Z M668.776,33.2 C670.148,33.2 671.072,32.164 671.072,30.988 C671.072,29.784 670.148,28.776 668.776,28.776 C667.432,28.776 666.508,29.784 666.508,30.988 C666.508,32.164 667.432,33.2 668.776,33.2 Z M684.656,47.844 C684.656,48.824 684.236,48.992 682.948,49.076 L682.948,50 L690.284,50 L690.284,49.076 C688.996,48.992 688.548,48.824 688.548,47.844 L688.548,39.444 C688.548,36.392 687.176,34.88 684.544,34.88 C682.164,34.88 680.568,36.224 679.364,37.624 L679.476,34.88 L678.832,34.88 L673.82,36.42 L673.82,36.952 L675.5,37.932 L675.5,47.844 C675.5,48.824 675.052,48.992 673.736,49.076 L673.736,50 L681.072,50 L681.072,49.076 C679.784,48.992 679.364,48.824 679.364,47.844 L679.364,38.38 C680.26,37.764 681.324,37.232 682.5,37.232 C684.04,37.232 684.656,38.044 684.656,39.668 L684.656,47.844 Z M698.352,34.88 C702.104,34.88 704.064,37.372 704.064,40.732 L704.064,41.376 L694.936,41.376 C694.824,45.296 696.84,47.62 699.584,47.62 C701.488,47.62 702.748,46.808 703.756,45.352 L704.204,45.604 C703.476,48.376 701.432,50.28 698.212,50.28 C694.152,50.28 691.436,47.284 691.436,42.972 C691.436,38.184 694.516,34.88 698.352,34.88 Z M698.072,35.916 C696.224,35.916 695.216,37.764 694.992,40.34 L700.592,40.34 C700.592,37.708 699.892,35.916 698.072,35.916 Z M721.124,30.064 C715.58,30.064 711.24,34.152 711.24,40.648 C711.24,46.444 715.02,50.28 721.124,50.28 C723.756,50.28 725.94,49.664 727.592,48.6 L728.012,43.336 L726.892,43.336 C725.912,47.424 724.12,49.076 721.488,49.076 C717.652,49.076 715.58,45.072 715.58,39.864 C715.58,35.104 717.372,31.24 721.236,31.24 C723.952,31.24 725.604,32.976 726.276,36.224 L727.34,36.224 L727.312,31.716 C725.716,30.68 723.616,30.064 721.124,30.064 Z M737.284,49.272 C739.356,49.272 740.28,46.892 740.28,43.224 C740.28,39.08 739.328,35.916 737.088,35.916 C735.016,35.916 734.064,38.268 734.064,41.936 C734.064,46.08 735.044,49.272 737.284,49.272 Z M737.144,50.28 C732.86,50.28 729.948,47.368 729.948,42.916 C729.948,38.156 733.056,34.88 737.228,34.88 C741.512,34.88 744.424,37.848 744.424,42.272 C744.424,47.032 741.316,50.28 737.144,50.28 Z M751.456,39.892 C752.884,38.464 754.256,38.38 755.992,38.38 L756.524,38.38 L756.524,35.356 C756.3,35.076 755.88,34.88 755.292,34.88 C753.64,34.88 752.8,35.972 751.456,39.024 L751.568,34.88 L750.924,34.88 L745.912,36.42 L745.912,36.952 L747.592,37.932 L747.592,47.844 C747.592,48.824 747.144,48.992 745.828,49.076 L745.828,50 L753.836,50 L753.836,49.076 C752.1,48.936 751.456,48.768 751.456,47.62 L751.456,39.892 Z M776.884,47.844 C776.884,48.824 776.52,48.992 775.232,49.076 L775.232,50 L782.512,50 L782.512,49.076 C781.224,48.992 780.776,48.824 780.776,47.844 L780.776,39.388 C780.776,36.42 779.516,34.88 776.94,34.88 C774.616,34.88 772.992,36.224 771.816,37.708 C771.452,35.748 770.22,34.88 768.176,34.88 C765.824,34.88 764.34,36.14 763.164,37.652 L763.276,34.88 L762.632,34.88 L757.62,36.42 L757.62,36.952 L759.3,37.932 L759.3,47.844 C759.3,48.824 758.852,48.992 757.536,49.076 L757.536,50 L764.844,50 L764.844,49.076 C763.556,48.992 763.164,48.824 763.164,47.844 L763.164,38.38 C764.06,37.764 764.956,37.232 766.076,37.232 C767.532,37.232 768.092,38.044 768.092,39.64 L768.092,47.844 C768.092,48.824 767.728,48.992 766.412,49.076 L766.412,50 L773.636,50 L773.636,49.076 C772.348,48.992 771.984,48.824 771.984,47.844 L771.984,38.408 C772.852,37.764 773.748,37.232 774.868,37.232 C776.324,37.232 776.884,38.044 776.884,39.64 L776.884,47.844 Z M789.208,34.88 L788.592,34.88 L783.664,36.42 L783.664,36.952 L785.344,37.932 L785.344,47.844 C785.344,48.824 784.896,48.992 783.58,49.076 L783.58,50 L790.972,50 L790.972,49.076 C789.656,48.992 789.208,48.824 789.208,47.844 L789.208,34.88 Z M787.22,33.2 C788.592,33.2 789.516,32.164 789.516,30.988 C789.516,29.784 788.592,28.776 787.22,28.776 C785.876,28.776 784.952,29.784 784.952,30.988 C784.952,32.164 785.876,33.2 787.22,33.2 Z M799.152,34.88 C802.904,34.88 804.864,37.372 804.864,40.732 L804.864,41.376 L795.736,41.376 C795.624,45.296 797.64,47.62 800.384,47.62 C802.288,47.62 803.548,46.808 804.556,45.352 L805.004,45.604 C804.276,48.376 802.232,50.28 799.012,50.28 C794.952,50.28 792.236,47.284 792.236,42.972 C792.236,38.184 795.316,34.88 799.152,34.88 Z M798.872,35.916 C797.024,35.916 796.016,37.764 795.792,40.34 L801.392,40.34 C801.392,37.708 800.692,35.916 798.872,35.916 Z M811.868,39.892 C813.296,38.464 814.668,38.38 816.404,38.38 L816.936,38.38 L816.936,35.356 C816.712,35.076 816.292,34.88 815.704,34.88 C814.052,34.88 813.212,35.972 811.868,39.024 L811.98,34.88 L811.336,34.88 L806.324,36.42 L806.324,36.952 L808.004,37.932 L808.004,47.844 C808.004,48.824 807.556,48.992 806.24,49.076 L806.24,50 L814.248,50 L814.248,49.076 C812.512,48.936 811.868,48.768 811.868,47.62 L811.868,39.892 Z" id="Martine-Cormier"></path>
        </g>
    </g>
</svg>
